svg/typewriter.svg

<svg xmlns="http://www.w3.org/2000/svg" viewBox="0 0 24 24"><path d="M20 13h-4c0 1.1-.9 2-2 2h-4c-1.1 0-2-.9-2-2H4l-2 5v2c0 1.1.9 2 2 2h16c1.1 0 2-.9 2-2v-2M6 20c-.89 0-1.34-1.08-.71-1.71S7 18.11 7 19c0 .55-.45 1-1 1m4 0c-.89 0-1.34-1.08-.71-1.71S11 18.11 11 19c0 .55-.45 1-1 1m4 0c-.89 0-1.34-1.08-.71-1.71S15 18.11 15 19c0 .55-.45 1-1 1m4 0c-.89 0-1.34-1.08-.71-1.71S19 18.11 19 19c0 .55-.45 1-1 1m0-10V3H6v7H3v2h18v-2M8 5h8v1H8m0 1h6v1H8"/></svg>

<?xml version="1.0" encoding="UTF-8"?><!DOCTYPE svg PUBLIC "-//W3C//DTD SVG 1.1//EN" "http://www.w3.org/Graphics/SVG/1.1/DTD/svg11.dtd"><svg xmlns="http://www.w3.org/2000/svg" xmlns:xlink="http://www.w3.org/1999/xlink" version="1.1" id="mdi-typewriter" width="24" height="24" viewBox="0 0 24 24"><path d="M20 13H16C16 14.1 15.1 15 14 15H10C8.9 15 8 14.1 8 13H4L2 18V20C2 21.1 2.9 22 4 22H20C21.1 22 22 21.1 22 20V18M6 20C5.11 20 4.66 18.92 5.29 18.29C5.92 17.66 7 18.11 7 19C7 19.55 6.55 20 6 20M10 20C9.11 20 8.66 18.92 9.29 18.29C9.92 17.66 11 18.11 11 19C11 19.55 10.55 20 10 20M14 20C13.11 20 12.66 18.92 13.29 18.29C13.92 17.66 15 18.11 15 19C15 19.55 14.55 20 14 20M18 20C17.11 20 16.66 18.92 17.29 18.29C17.92 17.66 19 18.11 19 19C19 19.55 18.55 20 18 20M18 10V3H6V10H3V12H21V10M8 5H16V6H8M8 7H14V8H8" /></svg>
